#src/img/svg/Group 8.svg

<svg width="127" height="127" viewBox="0 0 127 127" fill="none" xmlns="http://www.w3.org/2000/svg">
<g filter="url(#filter0_dd_65792_12)">
<g filter="url(#filter1_d_65792_12)">
<path fill-rule="evenodd" clip-rule="evenodd" d="M84.7723 42.0097C72.7076 29.945 53.1469 29.945 41.0822 42.0097L30.9999 31.9273C48.6329 14.2944 77.2216 14.2944 94.8546 31.9273C112.488 49.5603 112.488 78.149 94.8546 95.782L84.7723 85.6997C96.837 73.635 96.837 54.0743 84.7723 42.0097Z" fill="url(#paint0_linear_65792_12)"/>
<path d="M40.7287 42.3632L41.0822 42.7168L41.4358 42.3632C53.3052 30.4938 72.5493 30.4938 84.4187 42.3632C96.2881 54.2326 96.2881 73.4767 84.4187 85.3461L84.0652 85.6997L84.4187 86.0532L94.5011 96.1356L94.8546 96.4891L95.2082 96.1356C113.036 78.3073 113.036 49.402 95.2082 31.5738C77.3799 13.7455 48.4746 13.7455 30.6463 31.5738L30.2928 31.9273L30.6463 32.2809L40.7287 42.3632Z" stroke="black"/>
</g>
</g>
<g filter="url(#filter2_dd_65792_12)">
<g filter="url(#filter3_d_65792_12)">
<path fill-rule="evenodd" clip-rule="evenodd" d="M42.0097 84.7726C54.0744 96.8372 73.6351 96.8372 85.6998 84.7726L95.7821 94.8549C78.1491 112.488 49.5604 112.488 31.9274 94.8549C14.2944 77.2219 14.2944 48.6332 31.9274 31.0002L42.0097 41.0825C29.945 53.1472 29.945 72.7079 42.0097 84.7726Z" fill="url(#paint1_linear_65792_12)"/>
</g>
</g>
<defs>
<filter id="filter0_dd_65792_12" x="25.5854" y="17.7021" width="87.4939" height="87.4941" filterUnits="userSpaceOnUse" color-interpolation-filters="sRGB">
<feFlood flood-opacity="0" result="BackgroundImageFix"/>
<feColorMatrix in="SourceAlpha" type="matrix" values="0 0 0 0 0 0 0 0 0 0 0 0 0 0 0 0 0 0 127 0" result="hardAlpha"/>
<feOffset dy="4"/>
<feGaussianBlur stdDeviation="2"/>
<feComposite in2="hardAlpha" operator="out"/>
<feColorMatrix type="matrix" values="0 0 0 0 0 0 0 0 0 0 0 0 0 0 0 0 0 0 0.25 0"/>
<feBlend mode="normal" in2="BackgroundImageFix" result="effect1_dropShadow_65792_12"/>
<feColorMatrix in="SourceAlpha" type="matrix" values="0 0 0 0 0 0 0 0 0 0 0 0 0 0 0 0 0 0 127 0" result="hardAlpha"/>
<feOffset dy="4"/>
<feGaussianBlur stdDeviation="2"/>
<feComposite in2="hardAlpha" operator="out"/>
<feColorMatrix type="matrix" values="0 0 0 0 0 0 0 0 0 0 0 0 0 0 0 0 0 0 0.25 0"/>
<feBlend mode="normal" in2="effect1_dropShadow_65792_12" result="effect2_dropShadow_65792_12"/>
<feBlend mode="normal" in="SourceGraphic" in2="effect2_dropShadow_65792_12" result="shape"/>
</filter>
<filter id="filter1_d_65792_12" x="25.5854" y="17.7021" width="87.4939" height="87.4941" filterUnits="userSpaceOnUse" color-interpolation-filters="sRGB">
<feFlood flood-opacity="0" result="BackgroundImageFix"/>
<feColorMatrix in="SourceAlpha" type="matrix" values="0 0 0 0 0 0 0 0 0 0 0 0 0 0 0 0 0 0 127 0" result="hardAlpha"/>
<feOffset dy="4"/>
<feGaussianBlur stdDeviation="2"/>
<feComposite in2="hardAlpha" operator="out"/>
<feColorMatrix type="matrix" values="0 0 0 0 0 0 0 0 0 0 0 0 0 0 0 0 0 0 0.25 0"/>
<feBlend mode="normal" in2="BackgroundImageFix" result="effect1_dropShadow_65792_12"/>
<feBlend mode="normal" in="SourceGraphic" in2="effect1_dropShadow_65792_12" result="shape"/>
</filter>
<filter id="filter2_dd_65792_12" x="14.7026" y="31" width="85.0793" height="85.0801" filterUnits="userSpaceOnUse" color-interpolation-filters="sRGB">
<feFlood flood-opacity="0" result="BackgroundImageFix"/>
<feColorMatrix in="SourceAlpha" type="matrix" values="0 0 0 0 0 0 0 0 0 0 0 0 0 0 0 0 0 0 127 0" result="hardAlpha"/>
<feOffset dy="4"/>
<feGaussianBlur stdDeviation="2"/>
<feComposite in2="hardAlpha" operator="out"/>
<feColorMatrix type="matrix" values="0 0 0 0 0 0 0 0 0 0 0 0 0 0 0 0 0 0 0.25 0"/>
<feBlend mode="normal" in2="BackgroundImageFix" result="effect1_dropShadow_65792_12"/>
<feColorMatrix in="SourceAlpha" type="matrix" values="0 0 0 0 0 0 0 0 0 0 0 0 0 0 0 0 0 0 127 0" result="hardAlpha"/>
<feOffset dy="4"/>
<feGaussianBlur stdDeviation="2"/>
<feComposite in2="hardAlpha" operator="out"/>
<feColorMatrix type="matrix" values="0 0 0 0 0 0 0 0 0 0 0 0 0 0 0 0 0 0 0.25 0"/>
<feBlend mode="normal" in2="effect1_dropShadow_65792_12" result="effect2_dropShadow_65792_12"/>
<feBlend mode="normal" in="SourceGraphic" in2="effect2_dropShadow_65792_12" result="shape"/>
</filter>
<filter id="filter3_d_65792_12" x="14.7026" y="31" width="85.0793" height="85.0801" filterUnits="userSpaceOnUse" color-interpolation-filters="sRGB">
<feFlood flood-opacity="0" result="BackgroundImageFix"/>
<feColorMatrix in="SourceAlpha" type="matrix" values="0 0 0 0 0 0 0 0 0 0 0 0 0 0 0 0 0 0 127 0" result="hardAlpha"/>
<feOffset dy="4"/>
<feGaussianBlur stdDeviation="2"/>
<feComposite in2="hardAlpha" operator="out"/>
<feColorMatrix type="matrix" values="0 0 0 0 0 0 0 0 0 0 0 0 0 0 0 0 0 0 0.25 0"/>
<feBlend mode="normal" in2="BackgroundImageFix" result="effect1_dropShadow_65792_12"/>
<feBlend mode="normal" in="SourceGraphic" in2="effect1_dropShadow_65792_12" result="shape"/>
</filter>
<linearGradient id="paint0_linear_65792_12" x1="70.6729" y1="7.74569" x2="116.933" y2="72.5852" gradientUnits="userSpaceOnUse">
<stop stop-color="#DF5950"/>
<stop offset="1" stop-color="#451046"/>
</linearGradient>
<linearGradient id="paint1_linear_65792_12" x1="56.1091" y1="119.037" x2="9.8493" y2="54.197" gradientUnits="userSpaceOnUse">
<stop stop-color="#451046"/>
<stop offset="1" stop-color="#DF5950"/>
</linearGradient>
</defs>
</svg>

<svg width="127" height="127" fill="none" xmlns="http://www.w3.org/2000/svg"><g filter="url(#filter0_dd_65792_12)"><g filter="url(#filter1_d_65792_12)"><path fill-rule="evenodd" clip-rule="evenodd" d="M84.772 42.01c-12.064-12.065-31.625-12.065-43.69 0L31 31.927c17.633-17.633 46.222-17.633 63.855 0 17.633 17.633 17.633 46.222 0 63.855L84.772 85.7c12.065-12.065 12.065-31.626 0-43.69z" fill="url(#paint0_linear_65792_12)"/><path d="M40.729 42.363l.353.354.354-.354c11.87-11.87 31.113-11.87 42.983 0 11.87 11.87 11.87 31.114 0 42.983l-.354.354.354.353L94.5 96.136l.354.353.353-.353c17.828-17.829 17.828-46.734 0-64.562-17.828-17.829-46.733-17.829-64.562 0l-.353.353.353.354L40.73 42.363z" stroke="#000"/></g></g><g filter="url(#filter2_dd_65792_12)"><g filter="url(#filter3_d_65792_12)"><path fill-rule="evenodd" clip-rule="evenodd" d="M42.01 84.773c12.064 12.064 31.625 12.064 43.69 0l10.082 10.082c-17.633 17.633-46.222 17.633-63.855 0-17.633-17.633-17.633-46.222 0-63.855L42.01 41.083c-12.065 12.064-12.065 31.625 0 43.69z" fill="url(#paint1_linear_65792_12)"/></g></g><defs><filter id="filter0_dd_65792_12" x="25.585" y="17.702" width="87.494" height="87.494" filterUnits="userSpaceOnUse" color-interpolation-filters="sRGB"><feFlood flood-opacity="0" result="BackgroundImageFix"/><feColorMatrix in="SourceAlpha" values="0 0 0 0 0 0 0 0 0 0 0 0 0 0 0 0 0 0 127 0" result="hardAlpha"/><feOffset dy="4"/><feGaussianBlur stdDeviation="2"/><feComposite in2="hardAlpha" operator="out"/><feColorMatrix values="0 0 0 0 0 0 0 0 0 0 0 0 0 0 0 0 0 0 0.25 0"/><feBlend in2="BackgroundImageFix" result="effect1_dropShadow_65792_12"/><feColorMatrix in="SourceAlpha" values="0 0 0 0 0 0 0 0 0 0 0 0 0 0 0 0 0 0 127 0" result="hardAlpha"/><feOffset dy="4"/><feGaussianBlur stdDeviation="2"/><feComposite in2="hardAlpha" operator="out"/><feColorMatrix values="0 0 0 0 0 0 0 0 0 0 0 0 0 0 0 0 0 0 0.25 0"/><feBlend in2="effect1_dropShadow_65792_12" result="effect2_dropShadow_65792_12"/><feBlend in="SourceGraphic" in2="effect2_dropShadow_65792_12" result="shape"/></filter><filter id="filter1_d_65792_12" x="25.585" y="17.702" width="87.494" height="87.494" filterUnits="userSpaceOnUse" color-interpolation-filters="sRGB"><feFlood flood-opacity="0" result="BackgroundImageFix"/><feColorMatrix in="SourceAlpha" values="0 0 0 0 0 0 0 0 0 0 0 0 0 0 0 0 0 0 127 0" result="hardAlpha"/><feOffset dy="4"/><feGaussianBlur stdDeviation="2"/><feComposite in2="hardAlpha" operator="out"/><feColorMatrix values="0 0 0 0 0 0 0 0 0 0 0 0 0 0 0 0 0 0 0.25 0"/><feBlend in2="BackgroundImageFix" result="effect1_dropShadow_65792_12"/><feBlend in="SourceGraphic" in2="effect1_dropShadow_65792_12" result="shape"/></filter><filter id="filter2_dd_65792_12" x="14.703" y="31" width="85.079" height="85.08" filterUnits="userSpaceOnUse" color-interpolation-filters="sRGB"><feFlood flood-opacity="0" result="BackgroundImageFix"/><feColorMatrix in="SourceAlpha" values="0 0 0 0 0 0 0 0 0 0 0 0 0 0 0 0 0 0 127 0" result="hardAlpha"/><feOffset dy="4"/><feGaussianBlur stdDeviation="2"/><feComposite in2="hardAlpha" operator="out"/><feColorMatrix values="0 0 0 0 0 0 0 0 0 0 0 0 0 0 0 0 0 0 0.25 0"/><feBlend in2="BackgroundImageFix" result="effect1_dropShadow_65792_12"/><feColorMatrix in="SourceAlpha" values="0 0 0 0 0 0 0 0 0 0 0 0 0 0 0 0 0 0 127 0" result="hardAlpha"/><feOffset dy="4"/><feGaussianBlur stdDeviation="2"/><feComposite in2="hardAlpha" operator="out"/><feColorMatrix values="0 0 0 0 0 0 0 0 0 0 0 0 0 0 0 0 0 0 0.25 0"/><feBlend in2="effect1_dropShadow_65792_12" result="effect2_dropShadow_65792_12"/><feBlend in="SourceGraphic" in2="effect2_dropShadow_65792_12" result="shape"/></filter><filter id="filter3_d_65792_12" x="14.703" y="31" width="85.079" height="85.08" filterUnits="userSpaceOnUse" color-interpolation-filters="sRGB"><feFlood flood-opacity="0" result="BackgroundImageFix"/><feColorMatrix in="SourceAlpha" values="0 0 0 0 0 0 0 0 0 0 0 0 0 0 0 0 0 0 127 0" result="hardAlpha"/><feOffset dy="4"/><feGaussianBlur stdDeviation="2"/><feComposite in2="hardAlpha" operator="out"/><feColorMatrix values="0 0 0 0 0 0 0 0 0 0 0 0 0 0 0 0 0 0 0.25 0"/><feBlend in2="BackgroundImageFix" result="effect1_dropShadow_65792_12"/><feBlend in="SourceGraphic" in2="effect1_dropShadow_65792_12" result="shape"/></filter><linearGradient id="paint0_linear_65792_12" x1="70.673" y1="7.746" x2="116.933" y2="72.585" gradientUnits="userSpaceOnUse"><stop stop-color="#DF5950"/><stop offset="1" stop-color="#451046"/></linearGradient><linearGradient id="paint1_linear_65792_12" x1="56.109" y1="119.037" x2="9.849" y2="54.197" gradientUnits="userSpaceOnUse"><stop stop-color="#451046"/><stop offset="1" stop-color="#DF5950"/></linearGradient></defs></svg>
